svgs/light/mobile-button.svg

<svg xmlns="http://www.w3.org/2000/svg" viewBox="0 0 384 512"><!-- Font Awesome Pro 6.0.0-alpha2 by @fontawesome - https://fontawesome.com License - https://fontawesome.com/license (Commercial License) --><path d="M192 392C178.688 392 168 402.688 168 416S178.688 440 192 440S216 429.312 216 416S205.312 392 192 392ZM288 0H96C60.654 0 32 28.654 32 64V448C32 483.346 60.654 512 96 512H288C323.346 512 352 483.346 352 448V64C352 28.654 323.346 0 288 0ZM320 448C320 465.645 305.645 480 288 480H96C78.355 480 64 465.645 64 448V64C64 46.355 78.355 32 96 32H288C305.645 32 320 46.355 320 64V448Z"/></svg>

<svg xmlns="http://www.w3.org/2000/svg" viewBox="0 0 384 512"><!--! Font Awesome Pro 6.3.0 by @fontawesome - https://fontawesome.com License - https://fontawesome.com/license (Commercial License) Copyright 2023 Fonticons, Inc. --><path d="M192 392c-13.31 0-24 10.69-24 24s10.69 24 24 24s24-10.69 24-24S205.3 392 192 392zM288 0H96C60.65 0 32 28.65 32 64v384c0 35.35 28.65 64 64 64h192c35.35 0 64-28.65 64-64V64C352 28.65 323.3 0 288 0zM320 448c0 17.64-14.36 32-32 32H96c-17.64 0-32-14.36-32-32V64c0-17.64 14.36-32 32-32h192c17.64 0 32 14.36 32 32V448z"/></svg>
